modules/feathericon/icons/globe.svg

<?xml version="1.0" encoding="UTF-8"?>
<svg width="14px" height="14px" viewBox="0 0 14 14" version="1.1" xmlns="http://www.w3.org/2000/svg" xmlns:xlink="http://www.w3.org/1999/xlink">
    <!-- Generator: sketchtool 48.1 (47250) - http://www.bohemiancoding.com/sketch -->
    <title>globe</title>
    <desc>Created with sketchtool.</desc>
    <defs></defs>
    <g id="web-app" stroke="none" stroke-width="1" fill="none" fill-rule="evenodd">
        <g id="globe" fill="#000000">
            <path d="M0,7 C0,3.13400675 3.13400675,0 7,0 C10.8659932,0 14,3.13400675 14,7 C14,10.8659932 10.8659932,14 7,14 C3.13400675,14 0,10.8659932 0,7 Z M1.2519054,5.44772521 C1.00907197,5.95528866 1.40421499,6.2333196 1.74999997,6.40505625 C2.09578496,6.57679289 3.15412343,5.23075515 3.15412343,5.23075515 L4.375,6.12499998 C4.375,6.12499998 4.55289676,7.60756274 4.89006777,7.875 C5.22723879,8.14243726 5.90699017,8.14243728 5.90699017,8.14243728 L7.18645787,8.73075515 C7.18645787,8.73075515 6.90356788,9.3008143 7,9.625 C7.09643212,9.9491857 7.57659572,10.4807552 7.57659572,10.4807552 C7.57659572,10.4807552 6.64264961,12.4949768 7,13.1250004 C7.00000008,13.1250004 7.50598671,13.1250004 7.87500008,13.1250004 C8.24401345,13.1250004 10.5884684,10.2028608 10.5000001,9.625 C10.4115318,9.04713921 7.57659572,8.58665013 7.57659572,8.58665013 C7.57659572,8.58665013 6.65524294,8.22184829 6.30010164,7.85575515 C6.12500008,7.70683233 6.30010144,7.38266232 6.30010144,7.38266232 C6.30010144,7.38266232 6.71300544,7.55313328 7.00814946,7.38266227 C7.30329349,7.21219127 8.24401336,6.25988637 8.24401336,6.25988637 C8.24401336,6.25988637 8.44239358,6.55838569 8.75,6.125 C9.05760642,5.69161431 8.39985295,4.73282103 7.875,4.74198581 C7.2847894,4.75115058 7.00814961,5.62873174 7.00814961,5.62873174 L6.0643364,5.06240843 C6.0643364,5.06240843 7.02908854,4.78598747 7.00814946,4.37499998 C6.98721039,3.96401249 6.40941663,3.32794261 5.9847345,3.5 C5.56005236,3.67205739 5.90698998,4.19819712 5.90698998,4.19819712 C5.25000008,4.375 4.5388792,4.1981971 4.5388792,4.1981971 C4.5388792,4.1981971 3.88061514,3.82889022 3.27823536,3.89612415 C2.67585559,3.96335807 2.84168002,4.33866691 2.625,4.28600462 C2.36713476,4.2233326 2.47203706,3.5 2.18375503,3.5 C1.89547299,3.5 1.49473884,4.94016177 1.2519054,5.44772521 Z M7.82234096,3.35000488 C8.66700757,3.35000488 9.20195291,3.64935167 9.51167418,3.35000488 C9.82139545,3.05065808 10.7066713,2.34304148 10.0835413,1.84768664 C9.46041121,1.3523318 8.3391729,0.99826107 7.88094563,0.99826107 C7.42271836,0.99826107 5.28834122,0.874037555 5.28834122,1.69936003 C4.94671764,2.27646878 6.97767435,3.35000488 7.82234096,3.35000488 Z" id="Shape"></path>
        </g>
    </g>
</svg>

<svg width="14" height="14" viewBox="0 0 14 14" xmlns="http://www.w3.org/2000/svg"><path d="M0 7a7 7 0 1 1 14 0A7 7 0 0 1 0 7zm1.252-1.552c-.243.507.152.785.498.957.346.172 1.404-1.174 1.404-1.174l1.221.894s.178 1.483.515 1.75c.337.267 1.017.267 1.017.267l1.28.589s-.283.57-.187.894c.096.324.577.856.577.856S6.643 12.495 7 13.125h.875c.369 0 2.713-2.922 2.625-3.5-.088-.578-2.923-1.038-2.923-1.038s-.922-.365-1.277-.731c-.175-.15 0-.473 0-.473s.413.17.708 0S8.244 6.26 8.244 6.26s.198.298.506-.135-.35-1.392-.875-1.383c-.59.01-.867.887-.867.887l-.944-.567s.965-.276.944-.687c-.02-.411-.599-1.047-1.023-.875-.425.172-.078.698-.078.698-.657.177-1.368 0-1.368 0s-.658-.37-1.26-.302c-.603.067-.437.443-.654.39-.258-.063-.153-.786-.441-.786-.289 0-.69 1.44-.932 1.948zm6.57-2.098c.845 0 1.38.3 1.69 0 .31-.3 1.195-1.007.572-1.502-.624-.496-1.745-.85-2.203-.85-.458 0-2.593-.124-2.593.701-.341.577 1.69 1.651 2.534 1.651z" fill="#000" fill-rule="evenodd"/></svg>
